X:1
T:Title
%%score { ( 1 3 4 ) | 2 }
L:1/8
M:4/4
K:A
V:1 treble nm="Grand Piano"
V:3 treble 
V:4 treble 
V:2 bass 
V:1
 z4 z2[Q:1/4=90] [Ec]>[DB] | [CA]>[CA] [CA]>[CA] B>A G>F | [CE]4- [CE]>E (3EAc | B6 z2 | c6 z2 | %5
 [Ec]>[Ec] [Ec]>[Ec] [Fd]>[Ec] [EB]>[EA] | [DF]6 [FA]>[FB] | %7
 [Ec]2 [Ge]>[Bd] [Ac]>[Ac] (3[DGB][DGB][DGB] |[M:3/4] [CA]6 |[M:1/4] E>E |[M:4/4] c6 z2 | E6 z2 | %12
 B6 z2 | c6 z2 | z2 D>D (3D[EG][FA] (3[FB][FA][DF] | E6 z2 | %16
 [Ec]2 [Ge]>[Bd] [Ac]>[Ac] (3[DGB][DGB][DGB] |[M:7/4] [CA]6 z2 z2 z4 |] %18
V:2
 z4 z2 [A,,A,]>[A,,A,] | [A,,A,]>[A,,A,] [A,,A,]>[A,,A,] [D,F,D]>[D,F,D] [D,G,D]>[D,A,D] | %2
 [A,,A,]6 z2 | z z/ [E,E]/ (3[E,E][E,E][E,E] [E,E]2 z2 | %4
 z z/ [A,,A,]/ (3[A,,A,][A,,A,][A,,A,] [A,,A,]2 [A,,A,]>[A,,A,] | %5
 [A,,A,]>[A,,A,] [A,,A,]>[A,,A,] [A,,A,]>[A,,A,] [B,,G,]>[C,A,] | [D,A,]6 [D,A,]>[D,A,] | %7
 [E,A,]2 [E,B,]>[E,E] [E,E]>[E,E] (3E,E,E, |[M:3/4] A,,6 |[M:1/4] z2 | %10
[M:4/4] z2 [A,,A,]>[A,,A,] (3[A,,A,][A,,A,][A,,A,] (3[D,F,D][D,F,D][D,A,D] | %11
 [A,,A,]>[A,,A,] (3[A,,A,][A,,A,][A,,A,] [A,,A,]2 z2 | %12
 z2 [E,E]>[E,E] (3[E,E][E,E][E,E] (3[E,E][E,E][E,E] | [A,EA]>[A,E] (3[A,E][A,E][A,E] [A,E]2 z2 | %14
 z2[K:bass] [D,A,]>[D,A,] (3[D,A,][D,A,][D,A,] (3[D,D][D,D][D,A,] | %15
 [A,,A,]>[A,,A,] (3[A,,A,][A,,A,][A,,A,] [A,,A,]2 [A,,A,]>[A,,A,] | %16
 [E,A,]2 [E,B,]>[E,E] [E,E]>[E,E] (3E,E,E, |[M:7/4] A,,6 z2 z2 z4 |] %18
V:3
 x8 | x8 | x8 | z z/ G/ (3GGG G>E (3EGd | z z/ E/ (3EEE E2 [CA]>[DB] | x8 | x8 | x8 |[M:3/4] x6 | %9
[M:1/4] x2 |[M:4/4] z2 E>E (3E[DB][CA] (3AAF | z z/ C/ (3CCC C2 E>E | %12
 z2 G>G (3G[GB][GB] (3[GB][FA][GB] | z z/ A/ (3AAA A2 E>E | F6 z2 | z z/ C/ (3CCC C2 [CA]>[DB] | %16
 x8 |[M:7/4] x14 |] %18
V:4
 x8 | x8 | x8 | x8 | x8 | x8 | x8 | x8 |[M:3/4] x6 |[M:1/4] x2 |[M:4/4] x8 | C2 z2 z4 | x8 | x8 | %14
 x8 | C2 z2 z4 | x8 |[M:7/4] x14 |] %18

